X: 203
T: Richard Dwyer's
M: 4/4
L: 1/8
R: reel
K:Dmaj
c|"D"d2 fd "A"cdec|"D"defd AdBA|"G"GB (3BBB "D"Ad (3ddd|"G"gfed "A"cdec|
"D"d2 fd "A"cdec|"D"defd AdBA|"G"GB (3BBB "D"Ad (3ddd|"A"cdec "D"d3:|
e|"Bm"fB (3BBB cdcB|"A"A a2 g agfe|"Bm"fB (3BBB cdcB|"A"Aaag agfe|
"D"d2 fd "A"cdec|"D"defd AdBA|"G"GB (3BBB "D"Ad (3ddd|"A"cdec "D"d3:|


